X:785
T:Paddy Fahey's No. 1
N:Paddy Fahey
M:4/4
L:1/8
K:Ddor
D2A,D FEFG|Ad^ce d2de|f2df edcA|dcAG FDCD|
DA,A,2 FEFG|Ad^cA  d2de|f2gf edcA|dcAG FDD2:|
|: Ad~d2 ^fded|c2Gc EcGc|Ad~d2 ^fded|cBcd ed~d2|a2^ga ABcA|
dcAG FDCE|D2DE FEFG|Ad^cA d3 :|
